flaticon/essential/fast-forward.svg

<svg xmlns="http://www.w3.org/2000/svg" width="32" height="32" viewBox="0 0 24 24">
    <path d="M 23.820312 11.65625 L 12.453125 3.65625 C 12.324219 3.566406 12.15625 3.554688 12.015625 3.625 C 11.878906 3.699219 11.789062 3.84375 11.789062 4 L 11.789062 11.484375 L 0.664062 3.660156 C 0.535156 3.570312 0.367188 3.558594 0.226562 3.632812 C 0.0859375 3.703125 0 3.847656 0 4.003906 L 0 19.996094 C 0 20.152344 0.0859375 20.296875 0.226562 20.367188 C 0.289062 20.398438 0.355469 20.414062 0.421875 20.414062 C 0.507812 20.414062 0.589844 20.390625 0.664062 20.339844 L 11.789062 12.515625 L 11.789062 20 C 11.789062 20.15625 11.878906 20.300781 12.015625 20.375 C 12.078125 20.40625 12.144531 20.421875 12.210938 20.421875 C 12.296875 20.421875 12.378906 20.394531 12.453125 20.34375 L 23.820312 12.34375 C 23.933594 12.265625 24 12.136719 24 12 C 24 11.863281 23.933594 11.734375 23.820312 11.65625 Z M 0.84375 19.183594 L 0.84375 4.816406 L 11.058594 12 Z M 12.632812 19.1875 L 12.632812 4.8125 L 22.847656 12 Z M 12.632812 19.1875"/>
</svg>

<svg xmlns="http://www.w3.org/2000/svg" width="32" height="32" viewBox="0 0 24 24">
    <path d="M23.82 11.656l-11.367-8a.43.43 0 0 0-.437-.031.431.431 0 0 0-.227.375v7.484L.664 3.66a.42.42 0 0 0-.437-.027.413.413 0 0 0-.227.37v15.993c0 .156.086.3.227.371a.435.435 0 0 0 .437-.027l11.125-7.824V20c0 .156.09.3.227.375a.425.425 0 0 0 .438-.031l11.366-8a.417.417 0 0 0 0-.688zM.844 19.184V4.816L11.059 12zm11.789.003V4.813L22.848 12zm0 0"/>
</svg>
